src/icons/SVG/24px/User_Account_Profile--Woman_24px.svg

<svg width="24" height="24" viewBox="0 0 24 24" fill="none" xmlns="http://www.w3.org/2000/svg">
  <g id="Square"> </g>
  <g id="Icon">
<path id="&#240;&#159;&#142;&#168; Color" fill-rule="evenodd" clip-rule="evenodd" d="M21.1802 15.4199L19.4902 15.1199C19.9301 14.661 20.2705 14.1164 20.4902 13.5199L20.7802 12.6199L19.9102 12.2699C19.3096 12.0334 18.8976 11.4737 18.8502 10.8299V8.71991C18.8502 4.95885 15.8013 1.90991 12.0402 1.90991C8.27915 1.90991 5.23021 4.95885 5.23021 8.71991V10.8299C5.18564 11.4693 4.77694 12.0259 4.18021 12.2599L3.28021 12.6099L3.59021 13.5199C3.80993 14.1164 4.15036 14.661 4.59021 15.1199L2.90021 15.4199C2.41912 15.5079 2.07224 15.9309 2.08021 16.4199V20.9999C2.08021 21.5522 2.52793 21.9999 3.08021 21.9999H21.0002C21.5525 21.9999 22.0002 21.5522 22.0002 20.9999V16.4099C22.0033 15.9247 21.6575 15.5072 21.1802 15.4199ZM12.0002 3.99991C14.023 3.99321 15.8319 5.25787 16.5202 7.15991C14.792 8.53253 12.2998 8.34986 10.7902 6.73991C10.6603 6.63152 10.4837 6.59778 10.3231 6.65066C10.1624 6.70355 10.0403 6.83557 10.0002 6.99991C9.85739 7.57722 9.46506 8.06102 8.9297 8.32C8.39434 8.57898 7.77149 8.58628 7.23021 8.33991C7.44874 5.87247 9.52316 3.98505 12.0002 3.99991ZM15.0002 8.99991V9.49991C15.0002 11.1568 13.6571 12.4999 12.0002 12.4999C10.3434 12.4999 9.00021 11.1568 9.00021 9.49991C9.01072 9.4471 9.01072 9.39273 9.00021 9.33991C9.70896 9.09691 10.3011 8.5975 10.6602 7.93991C11.5807 8.67452 12.7225 9.07628 13.9002 9.07991C14.2687 9.09325 14.6375 9.06642 15.0002 8.99991ZM7.19021 10.8299V9.37991C7.45374 9.45544 7.7261 9.49579 8.00021 9.49991V9.93991C8.12172 12.1491 10.0111 13.8414 12.2202 13.7199C14.4294 13.5984 16.1217 11.7091 16.0002 9.49991V8.62991C16.2655 8.52057 16.5199 8.38665 16.7602 8.22991C16.7701 8.3931 16.7701 8.55673 16.7602 8.71991V10.8299C16.761 11.9078 17.2684 12.9226 18.1302 13.5699C17.8446 13.9529 17.4511 14.2419 17.0002 14.3999C16.9015 14.2011 16.7771 14.0162 16.6302 13.8499L16.4702 13.6699C16.3242 13.4996 16.0812 13.4501 15.8802 13.5499L12.0002 15.4399L8.13021 13.5499C7.92927 13.4501 7.68621 13.4996 7.54021 13.6699L7.38021 13.8499C7.22978 14.0156 7.10199 14.2006 7.00021 14.3999C6.52742 14.2526 6.11175 13.9627 5.81021 13.5699C6.6758 12.9247 7.18707 11.9095 7.19021 10.8299ZM16.3102 15.8299C16.2657 16.3198 16.0193 16.769 15.6302 17.0699C15.2412 17.378 14.7391 17.5054 14.2502 17.4199C13.76 17.3428 13.3246 17.0635 13.0502 16.6499L12.7302 16.1699L16.0002 14.6199C16.2553 14.9798 16.3659 15.4223 16.3102 15.8599V15.8299ZM11.3102 16.1699L10.9902 16.6499C10.7159 17.0635 10.2805 17.3428 9.79021 17.4199C9.30135 17.5054 8.79925 17.378 8.41021 17.0699C7.6321 16.4994 7.45026 15.4127 8.00021 14.6199L11.3102 16.1699ZM20.0002 19.9999H4.00021V17.2399L6.89021 16.7199C7.29502 17.789 8.32719 18.4891 9.47021 18.4699H9.91021C10.6741 18.3425 11.351 17.9045 11.7802 17.2599L12.0002 16.8999L12.2202 17.2299C12.6494 17.8745 13.3264 18.3125 14.0902 18.4399H14.5302C15.6732 18.4591 16.7054 17.759 17.1102 16.6899L20.0002 17.2099V19.9999Z" fill="black"/>
</g>
</svg>

<svg xmlns="http://www.w3.org/2000/svg" viewBox="0 0 24 24">
  <g id="Square"> </g>
  <path fill-rule="evenodd" d="M21.18 15.42l-1.69-.3c.44-.459.78-1.004 1-1.6l.29-.9-.87-.35a1.68 1.68 0 01-1.06-1.44V8.72a6.81 6.81 0 10-13.62 0v2.11a1.66 1.66 0 01-1.05 1.43l-.9.35.31.91a4.62 4.62 0 001 1.6l-1.69.3a1 1 0 00-.82 1V21a1 1 0 001 1H21a1 1 0 001-1v-4.59a1 1 0 00-.82-.99zM12 4a4.79 4.79 0 014.52 3.16 4.24 4.24 0 01-5.73-.42A.49.49 0 0010 7a2 2 0 01-2.77 1.34A4.76 4.76 0 0112 4zm3 5v.5a3 3 0 11-6 0 .41.41 0 000-.16 3 3 0 001.66-1.4 5.22 5.22 0 003.24 1.14A5.08 5.08 0 0015 9zm-7.81 1.83V9.38c.264.075.536.116.81.12v.44a4.006 4.006 0 108-.44v-.87c.265-.11.52-.243.76-.4.01.163.01.327 0 .49v2.11a3.43 3.43 0 001.37 2.74 2.4 2.4 0 01-1.13.83 2.53 2.53 0 00-.37-.55l-.16-.18a.49.49 0 00-.59-.12L12 15.44l-3.87-1.89a.49.49 0 00-.59.12l-.16.18a2.53 2.53 0 00-.38.55 2.4 2.4 0 01-1.19-.83 3.43 3.43 0 001.38-2.74zm9.12 5c-.044.49-.29.939-.68 1.24a1.74 1.74 0 01-1.38.35 1.77 1.77 0 01-1.2-.77l-.32-.48L16 14.62c.255.36.366.802.31 1.24v-.03zm-5 .34l-.32.48a1.77 1.77 0 01-1.2.77 1.74 1.74 0 01-1.38-.35A1.78 1.78 0 018 14.62l3.31 1.55zM20 20H4v-2.76l2.89-.52a2.71 2.71 0 002.58 1.75h.44a2.8 2.8 0 001.87-1.21l.22-.36.22.33a2.8 2.8 0 001.87 1.21h.44a2.71 2.71 0 002.58-1.75l2.89.52V20z"/>
</svg>
